!!!COM: Palestrina, Giovanni Perluigi da
!!!OPR: Ecce ego Joannes
!!!OTL: Agnus II
**kern	**kern	**kern	**kern	**kern	**kern
*Ibass	*Ibarit	*Itenor	*Itenor	*Icalto	*Icant
!Bassus	!Baritone	!Tenor 2	!Tenor 1	!Altus	!Cantus
*clefF4	*clefF4	*clefGv2	*clefGv2	*clefG2	*clefG2
*k[]	*k[]	*k[]	*k[]	*k[]	*k[]
*G:mix	*G:mix	*G:mix	*G:mix	*G:mix	*G:mix
*M4/2	*M4/2	*M4/2	*M4/2	*M4/2	*M4/2
=1	=1	=1	=1	=1	=1
0G	0r	0B	0d	0g	0r
=2	=2	=2	=2	=2	=2
1C	0r	1c	1e	1g	0r
1D	.	1A	[1d	1f#	.
=3	=3	=3	=3	=3	=3
1G	0r	1B	1d]	1g	0r
1C	.	2c	1g	2e	.
.	.	2e	.	2g	.
=4	=4	=4	=4	=4	=4
2r	0r	2d	2r	2f#	0r
2c	.	2c	2e	2.g	.
2B	.	[1g	2d	.	.
.	.	.	.	4f	.
[2c	.	.	[2e	4e	.
.	.	.	.	4d	.
=5	=5	=5	=5	=5	=5
4c]	0r	2g]	4e]	2c	0r
4B	.	.	4d	.	.
4A	.	1a	4c	2e	.
4G	.	.	4B	.	.
2F	.	.	2A	2f	.
2E	.	2g	2c	2g	.
=6	=6	=6	=6	=6	=6
2F	0r	2f	2c	2a	0r
2G	.	1e	2B	1g	.
1A	.	.	1c	.	.
.	.	4d	.	2f#	.
.	.	4c	.	.	.
=7	=7	=7	=7	=7	=7
0G	0r	2B	2d	[0g	0r
.	.	1c	2e	.	.
.	.	.	1d	.	.
.	.	2B	.	.	.
=8	=8	=8	=8	=8	=8
0C	0c	4c	0e	1g]	0ee
.	.	4d	.	.	.
.	.	4e	.	.	.
.	.	4f	.	.	.
.	.	2g	.	1cc	.
.	.	[2g	.	.	.
=9	=9	=9	=9	=9	=9
0r	1G	2g]	0r	1b	1dd
.	.	2g	.	.	.
.	1A	1e	.	[1a	1cc#
=10	=10	=10	=10	=10	=10
0r	1d	1f#	2r	1a]	1dd
.	.	.	2.d	.	.
.	1G	1g	.	1b	2dd
.	.	.	4c	.	.
.	.	.	2B	.	2dd
=11	=11	=11	=11	=11	=11
0r	0r	2r	2A	2r	2cc
.	.	2g	2G	2b	2.dd
.	.	2f#	2d	2a	.
.	.	.	.	.	4cc
.	.	[2g	2G	[2b	4b
.	.	.	.	.	4a
=12	=12	=12	=12	=12	=12
0r	1r	4g]	1G	4b]	2g
.	.	4f	.	4a	.
.	.	4e	.	4g	2b
.	.	4d	.	4f	.
.	2r	2c	1r	4e	1cc
.	.	.	.	4f	.
.	2c	2e	.	4g	.
.	.	.	.	4a	.
=13	=13	=13	=13	=13	=13
0r	2B	2d	0r	1g	2dd
.	2.c	2c	.	.	2.ee
.	.	2g	.	1e	.
.	4B	.	.	.	4dd
.	4A	[2a	.	.	4cc
.	4G	.	.	.	4b
=14	=14	=14	=14	=14	=14
0r	2F	2a]	0r	2f	4a
.	.	.	.	.	4b
.	2E	2g	.	2g	2.cc
.	2F	2f	.	2a	.
.	.	.	.	.	4a
.	2G	[2e	.	[2g	2b
=15	=15	=15	=15	=15	=15
0r	1A	2e]	0r	2g]	1cc
.	.	4d	.	2f#	.
.	.	4c	.	.	.
.	1G	[1d	.	2.g	1b
.	.	.	.	8f	.
.	.	.	.	8e	.
=16	=16	=16	=16	=16	=16
0G	0B	1d]	0g	4d	0dd
.	.	.	.	4c	.
.	.	.	.	4B	.
.	.	.	.	4A	.
.	.	1d	.	2B	.
.	.	.	.	2G	.
=17	=17	=17	=17	=17	=17
1C	1c	2c	1e	2g	1ee
.	.	2G	.	2e	.
1D	1A	2.d	1f#	1a	[1dd
.	.	4c	.	.	.
=18	=18	=18	=18	=18	=18
1G	1B	4B	2g	1d	1dd]
.	.	4A	.	.	.
.	.	2G	2g	.	.
4C	2c	1r	2e	[1g	2ee
4D	.	.	.	.	.
4E	2c	.	[2g	.	2ee
4F	.	.	.	.	.
=19	=19	=19	=19	=19	=19
2G	2B	2r	4g]	1g]	2dd
.	.	.	4f	.	.
2C	2.c	2c	4e	.	2.ee
.	.	.	4d	.	.
1C	.	1e	1c	2r	.
.	4B	.	.	.	4dd
.	4A	.	.	2e	4cc
.	4G	.	.	.	4b
=20	=20	=20	=20	=20	=20
2r	2F	2f	2r	2a	2a
2c	2C	2e	2e	2.g	2cc
2B	2G	1g	2d	.	2dd
.	.	.	.	4f	.
[2c	2C	.	[2e	4e	2cc
.	.	.	.	4d	.
=21	=21	=21	=21	=21	=21
4c]	1c	2g	4e]	2e	1cc
4B	.	.	4d	.	.
4A	.	1a	4c	2e	.
4G	.	.	4B	.	.
2F	2c	.	2A	2f	2cc
2C	2c	[2g	2c	2e	2ee
=22	=22	=22	=22	=22	=22
2G	2B	4g]	2d	1g	2dd
.	.	4f	.	.	.
2C	2c	4e	2e	.	1cc
.	.	4d	.	.	.
2.F	1A	2c	[1f	1a	.
.	.	2c	.	.	[2ff
4E	.	.	.	.	.
=23	=23	=23	=23	=23	=23
4D	0A	2d	1f]	[0a	4ff]
4E	.	.	.	.	4ee
4F	.	1a	.	.	1dd
4G	.	.	.	.	.
1A	.	.	1e	.	.
.	.	2e	.	.	2cc#
=24	=24	=24	=24	=24	=24
0D	1r	1f#	0d	1a]	1dd
.	2.D	2.f#	.	1r	2.a
.	4D	4f#	.	.	4a
=25	=25	=25	=25	=25	=25
0r	1G	1g	0r	2.d	1b
.	.	.	.	4d	.
.	2C	2.e	.	1g	2cc
.	[2c	.	.	.	[2ee
.	.	4f	.	.	.
=26	=26	=26	=26	=26	=26
0r	4c]	2g	0r	2c	4ee]
.	4B	.	.	.	4dd
.	4A	2.a	.	2.cc	4cc
.	4G	.	.	.	4b
.	[1F	.	.	.	4a
.	.	4g	.	4b	4b
.	.	[2f	.	4a	[2cc
.	.	.	.	4g	.
=27	=27	=27	=27	=27	=27
1r	2F]	4f]	0r	2a	2cc]
.	.	4e	.	.	.
.	2G	4d	.	1g	2b
.	.	4c	.	.	.
2.D	2D	2.d	.	.	1a
.	2d	.	.	2f#	.
4D	.	4c	.	.	.
=28	=28	=28	=28	=28	=28
1G	2d	4B	2.d	1g	2g
.	.	4G	.	.	.
.	2B	2d	.	.	2gg
.	.	.	4d	.	.
2C	1c	[1e	1g	2r	2gg
[2c	.	.	.	2g	[2ee
=29	=29	=29	=29	=29	=29
4c]	0c	1e]	2e	2g	4ee]
4B	.	.	.	.	4dd
4A	.	.	2.a	2.cc	4cc
4G	.	.	.	.	4b
1F	.	1r	.	.	4a
.	.	.	4g	4b	4b
.	.	.	4f	2a	2cc
.	.	.	4e	.	.
=30	=30	=30	=30	=30	=30
2G	0r	0r	2d	2g	2b
2A	.	.	2c	2f	1a
1E	.	.	1B	1e	.
.	.	.	.	.	2g#
=31	=31	=31	=31	=31	=31
0AA	1r	2r	1A	1c#	1a
.	.	2.e	.	.	.
.	2.A	.	2.e	1r	2.cc#
.	.	4e	.	.	.
.	.	[2a	.	.	.
.	4A	.	4e	.	4cc#
=32	=32	=32	=32	=32	=32
0r	1d	2a]	1f#	2.a	1dd
.	.	1d	.	.	.
.	.	.	.	4a	.
.	1G	.	2.g	1b	1dd
.	.	[2g	.	.	.
.	.	.	4f	.	.
=33	=33	=33	=33	=33	=33
0r	0r	4g]	4e	2b	2.gg
.	.	4f	4d	.	.
.	.	4e	2c	2.cc	.
.	.	4d	.	.	4ff
.	.	1c	1r	.	4ee
.	.	.	.	4b	4dd
.	.	.	.	4a	4cc
.	.	.	.	4g	4b
=34	=34	=34	=34	=34	=34
1r	1r	2d	0r	2f#	2a
.	.	2e	.	1g	2g
2.D	2.A	[1d	.	.	1a
.	.	.	.	2f#	.
4D	4A	.	.	.	.
=35	=35	=35	=35	=35	=35
1G	1B	2d]	2.d	1g	1g
.	.	2.g	.	.	.
.	.	.	4d	.	.
2C	2.c	.	1g	1e	1r
.	.	4f	.	.	.
[2c	.	4e	.	.	.
.	4B	4d	.	.	.
=36	=36	=36	=36	=36	=36
4c]	4A	2e	2c	2f	0r
4B	4G	.	.	.	.
4A	4F	1f	2.a	2.cc	.
4G	4G	.	.	.	.
1F	4A	.	.	.	.
.	4B	.	4g	4b	.
.	4c	2c	4f	2a	.
.	4A	.	4e	.	.
=37	=37	=37	=37	=37	=37
2G	2B	1r	2d	2g	1r
2A	1c	.	2c	2f#	.
1G	.	2r	1d	1g	2.dd
.	2B	[2G	.	.	.
.	.	.	.	.	4dd
=38	=38	=38	=38	=38	=38
2.C	1c	4G]	1c	2.g	1ee
.	.	4G	.	.	.
.	.	1c	.	.	.
4C	.	.	.	4g	.
1F	2.A	.	2.c	1a	2cc
.	.	[2A	.	.	[2ff
.	4A	.	4c	.	.
=39	=39	=39	=39	=39	=39
1D	2.d	2A]	1f	1a	2ff]
.	.	2.d	.	.	1dd
.	4c	.	.	.	.
2.G	4B	.	1d	[1b	.
.	4A	4c	.	.	.
.	[2B	4B	.	.	[2gg
4F	.	4A	.	.	.
=40	=40	=40	=40	=40	=40
4E	2B]	2G	2.g	2b]	4gg]
4D	.	.	.	.	4ff
1C	2c	2G	.	2e	4ee
.	.	.	4f	.	4dd
.	2.G	1c	4e	[1g	2cc
.	.	.	4d	.	.
2C	.	.	2e	.	2cc
.	4A	.	.	.	.
=41	=41	=41	=41	=41	=41
2.G	4B	2B	4d	2g]	1dd
.	4c	.	4c	.	.
.	2.d	2G	4B	2g	.
4G	.	.	4A	.	.
2G	.	1B	2G	2g	1dd
.	4c	.	.	.	.
2G	2B	.	[2g	2g	.
=42	=42	=42	=42	=42	=42
0D	0A	0d	2g]	0a	0dd
.	.	.	4f#	.	.
.	.	.	4e	.	.
.	.	.	1f#	.	.
=43	=43	=43	=43	=43	=43
0G	0G	0d	0g	0b	0dd
==	==	==	==	==	==
*-	*-	*-	*-	*-	*-
!!!CDT: 1525/^1526/-1594/2/2
!!!OCY: Italia
!!!AGN: Mass (Parody)
!!!AST: renaissance, vocal
!!!ASW: Motet (Unidentified)
!!!PWK: Masses, Book 12
!!!RNB: Cadence finals: D
!!!YOR: Le Opere Complete, v. 29, p. 197
!!!YOO: Rome, Italy: Fratelli Scalera
!!!END: 1992//
!!!EED: John Miller
!!!YEC: Copyright 2000, John Miller
!!!YEN: United States of America
!!!YEM: Rights to all derivative electronic formats reserved.
!!!YEM: Refer to licensing agreement for further details.
!!!YEM: This file must be accompanied by the licensing agreement.
!!!YEM: A copy of the licensing agreement may be found at http://www.music-cog.ohio-state.edu/HumdrumDatabases/Palestrina/license.txt
!!!EMD: converted to Humdrum by Bret Aarden
